images/frax.svg

<svg height="250" viewBox="0 0 250 250" width="250" xmlns="http://www.w3.org/2000/svg"><path d="m274.100426 360.900815c0 157.180857-127.422018 284.602875-284.602874 284.602875-157.180857 0-284.593962-127.422018-284.593962-284.602875s127.413105-284.602875 284.593962-284.602875c157.180856 0 284.602874 127.422018 284.602874 284.602875zm0 0" fill-rule="evenodd" stroke="#000" stroke-miterlimit="11.3386" stroke-width="1.2373" transform="matrix(.438289 0 0 .438289 129.583575 -33.186634)"/><path d="m56.171875 55.609375c-5.261719 5.523437-9.601563 10.167969-9.644531 10.257813-.042969.132812 4.691406 4.777343 10.519531 10.300781 5.828125 5.566406 10.914063 10.429687 11.265625 10.738281l.65625.613281-1.183594 1.972657c-10.386718 17.179687-12.535156 37.867187-6.003906 56.886718 1.226562 3.59375 3.328125 8.199219 5.128906 11.222656.875 1.488282 1.269532 2.453126 1.179688 2.628907-.085938.175781-5.390625 5.785156-11.789063 12.492187-6.398437 6.660156-11.613281 12.226563-11.703125 12.316406-.042968.128907 17.882813 17.441407 19.59375 18.84375l.65625.570313 10.125-10.5625c5.566406-5.828125 10.78125-11.308594 11.570313-12.140625l1.492187-1.488281 1.402344.875c7.144531 4.558593 15.515625 7.714843 24.761719 9.378906 4.644531.832031 13.5 1.050781 18.453125.4375 9.554687-1.09375 19.019531-4.292969 26.777344-8.984375l2.015624-1.226562 2.148438 2.105468c4.691406 4.554688 22.222656 21.210938 22.398438 21.300782.175781.085937 19.414062-20.03125 19.371093-20.292969-.042969-.132813-13.234375-12.800781-21.300781-20.382813l-2.671875-2.542968 1.226563-2.015626c10.300781-17.136718 12.445312-37.910156 5.785156-57.0625-.964844-2.804687-3.902344-9.117187-5.609375-12.011718l-.832031-1.445313 11.261718-11.789062c6.179688-6.445313 11.21875-11.835938 11.175782-11.964844-.175782-.441406-19.898438-19.066406-20.160157-19.066406-.175781 0-5.128906 5.039062-11.046875 11.265625-5.914062 6.179687-10.824218 11.261718-10.957031 11.304687-.085937.046875-.65625-.21875-1.183594-.613281-1.488281-1.007812-5.257812-3.066406-7.359375-4.03125-6.402344-2.9375-12.363281-4.734375-19.285156-5.742188-3.59375-.527343-14.378906-.613281-17.707031-.132812-7.976563 1.140625-14.507813 3.113281-21.171875 6.445312-1.925782.917969-4.164063 2.148438-5.039063 2.671876l-1.578125.964843-1.796875-1.753906c-.964843-.964844-5.347656-5.082031-9.6875-9.246094-4.335937-4.121093-8.765625-8.328125-9.816406-9.378906l-1.929687-1.886719zm73.585937 28.578125c6.96875.832031 13.195313 3.199219 18.933594 7.230469 2.9375 2.0625 7.320313 6.445312 9.382813 9.378906 11.699219 16.570313 9.464843 39.097656-5.261719 52.902344-12.578125 11.746093-30.765625 14.375-46.0625 6.574219-11.046875-5.652344-18.847656-15.996094-21.347656-28.402344-.789063-3.941406-.789063-11.304688 0-15.207032.746094-3.855468 1.753906-6.617187 3.640625-10.476562 7.539062-15.164062 23.886719-24.015625 40.714843-22zm0 0" fill="#fff"/></svg>

<!-- Generator: Adobe Illustrator 24.0.0, SVG Export Plug-In . SVG Version: 6.00 Build 0)  -->
<svg xmlns="http://www.w3.org/2000/svg" xmlns:xlink="http://www.w3.org/1999/xlink" width="250px" height="250px" viewBox="0 0 250 250" version="1.1">
<g id="surface1">
<path style="fill-rule:evenodd;fill:rgb(0%,0%,0%);fill-opacity:1;stroke-width:1.2373;stroke-linecap:butt;stroke-linejoin:miter;stroke:rgb(0%,0%,0%);stroke-opacity:1;stroke-miterlimit:11.3386;" d="M 274.100426 360.900815 C 274.100426 518.081672 146.678408 645.50369 -10.502448 645.50369 C -167.683305 645.50369 -295.09641 518.081672 -295.09641 360.900815 C -295.09641 203.719958 -167.683305 76.29794 -10.502448 76.29794 C 146.678408 76.29794 274.100426 203.719958 274.100426 360.900815 Z M 274.100426 360.900815 " transform="matrix(0.438289,0,0,0.438289,129.583575,-33.186634)"/>
<path style=" stroke:none;fill-rule:nonzero;fill:rgb(100%,100%,100%);fill-opacity:1;" d="M 56.171875 55.609375 C 50.910156 61.132812 46.570312 65.777344 46.527344 65.867188 C 46.484375 66 51.21875 70.644531 57.046875 76.167969 C 62.875 81.734375 67.960938 86.597656 68.3125 86.90625 L 68.96875 87.519531 L 67.785156 89.492188 C 57.398438 106.671875 55.25 127.359375 61.78125 146.378906 C 63.007812 149.972656 65.109375 154.578125 66.910156 157.601562 C 67.785156 159.089844 68.179688 160.054688 68.089844 160.230469 C 68.003906 160.40625 62.699219 166.015625 56.300781 172.722656 C 49.902344 179.382812 44.6875 184.949219 44.597656 185.039062 C 44.554688 185.167969 62.480469 202.480469 64.191406 203.882812 L 64.847656 204.453125 L 74.972656 193.890625 C 80.539062 188.0625 85.753906 182.582031 86.542969 181.75 L 88.035156 180.261719 L 89.4375 181.136719 C 96.582031 185.695312 104.953125 188.851562 114.199219 190.515625 C 118.84375 191.347656 127.699219 191.566406 132.652344 190.953125 C 142.207031 189.859375 151.671875 186.660156 159.429688 181.96875 L 161.445312 180.742188 L 163.59375 182.847656 C 168.285156 187.402344 185.816406 204.058594 185.992188 204.148438 C 186.167969 204.234375 205.40625 184.117188 205.363281 183.855469 C 205.320312 183.722656 192.128906 171.054688 184.0625 163.472656 L 181.390625 160.929688 L 182.617188 158.914062 C 192.917969 141.777344 195.0625 121.003906 188.402344 101.851562 C 187.4375 99.046875 184.5 92.734375 182.792969 89.839844 L 181.960938 88.394531 L 193.222656 76.605469 C 199.402344 70.160156 204.441406 64.769531 204.398438 64.640625 C 204.222656 64.199219 184.5 45.574219 184.238281 45.574219 C 184.0625 45.574219 179.109375 50.613281 173.191406 56.839844 C 167.277344 63.019531 162.367188 68.101562 162.234375 68.144531 C 162.148438 68.191406 161.578125 67.925781 161.050781 67.53125 C 159.5625 66.523438 155.792969 64.464844 153.691406 63.5 C 147.289062 60.5625 141.328125 58.765625 134.40625 57.757812 C 130.8125 57.230469 120.027344 57.144531 116.699219 57.625 C 108.722656 58.765625 102.191406 60.738281 95.527344 64.070312 C 93.601562 64.988281 91.363281 66.21875 90.488281 66.742188 L 88.910156 67.707031 L 87.113281 65.953125 C 86.148438 64.988281 81.765625 60.871094 77.425781 56.707031 C 73.089844 52.585938 68.660156 48.378906 67.609375 47.328125 L 65.679688 45.441406 Z M 129.757812 84.1875 C 136.726562 85.019531 142.953125 87.386719 148.691406 91.417969 C 151.628906 93.480469 156.011719 97.863281 158.074219 100.796875 C 169.773438 117.367188 167.539062 139.894531 152.8125 153.699219 C 140.234375 165.445312 122.046875 168.074219 106.75 160.273438 C 95.703125 154.621094 87.902344 144.277344 85.402344 131.871094 C 84.613281 127.929688 84.613281 120.566406 85.402344 116.664062 C 86.148438 112.808594 87.15625 110.046875 89.042969 106.1875 C 96.582031 91.023438 112.929688 82.171875 129.757812 84.1875 Z M 129.757812 84.1875 "/>
</g>
</svg>
